storage/app/icons/phosphoricons/light/video-light.svg

<svg xmlns="http://www.w3.org/2000/svg" fill="currentColor" viewBox="0 0 256 256"><path d="m163.33 107-48-32a6 6 0 0 0-9.33 5v64a6 6 0 0 0 9.33 5l48-32a6 6 0 0 0 0-10M118 132.79V91.21L149.18 112ZM216 42H40a14 14 0 0 0-14 14v112a14 14 0 0 0 14 14h176a14 14 0 0 0 14-14V56a14 14 0 0 0-14-14m2 126a2 2 0 0 1-2 2H40a2 2 0 0 1-2-2V56a2 2 0 0 1 2-2h176a2 2 0 0 1 2 2Zm12 40a6 6 0 0 1-6 6H32a6 6 0 0 1 0-12h192a6 6 0 0 1 6 6"/></svg>

<svg xmlns="http://www.w3.org/2000/svg" viewBox="0 0 256 256" fill="currentColor"><path d="M163.33,107l-48-32A6,6,0,0,0,106,80v64a6,6,0,0,0,9.33,5l48-32a6,6,0,0,0,0-10ZM118,132.79V91.21L149.18,112ZM216,42H40A14,14,0,0,0,26,56V168a14,14,0,0,0,14,14H216a14,14,0,0,0,14-14V56A14,14,0,0,0,216,42Zm2,126a2,2,0,0,1-2,2H40a2,2,0,0,1-2-2V56a2,2,0,0,1,2-2H216a2,2,0,0,1,2,2Zm12,40a6,6,0,0,1-6,6H32a6,6,0,0,1,0-12H224A6,6,0,0,1,230,208Z"/></svg>
